assets/images/font-names/montserrat.svg

<svg width="78.42" height="10.545"><path d="M10.095 0h.255v10.5h-.3V.645l-4.785 8.37h-.18L.3.675V10.5H0V0h.255l4.92 8.61L10.095 0zM29.88 5.925V10.5h-.3V5.925q0-1.03-.38-1.711a2.282 2.282 0 00-.348-.471 2.367 2.367 0 00-1.146-.651q-.376-.097-.823-.106a4.594 4.594 0 00-.093-.001 4.088 4.088 0 00-1.007.117 2.865 2.865 0 00-1.386.791 3.065 3.065 0 00-.815 1.644 4.337 4.337 0 00-.062.748V10.5h-.3V2.745h.3v2.07q.36-.99 1.2-1.552a3.262 3.262 0 011.23-.49 4.481 4.481 0 01.825-.073q1.455 0 2.28.833.825.832.825 2.392zm7.935 3.555l.18-.24a2.911 2.911 0 00.508.388q.309.189.7.34.757.292 1.642.292a6.079 6.079 0 00.688-.036q.715-.082 1.152-.348a1.642 1.642 0 00.11-.074 1.452 1.452 0 00.618-1.046 1.908 1.908 0 00.012-.221 1.634 1.634 0 00-.044-.389 1.112 1.112 0 00-.294-.533q-.337-.338-.824-.495a6.728 6.728 0 00-.341-.1q-.356-.094-.84-.191a22.906 22.906 0 00-.162-.032 16.76 16.76 0 01-.587-.116q-.521-.113-.89-.236a2.249 2.249 0 01-.809-.465 2.185 2.185 0 01-.136-.135q-.352-.38-.381-1.032a2.679 2.679 0 01-.002-.116 1.742 1.742 0 01.573-1.307 2.397 2.397 0 01.124-.111q.538-.445 1.464-.547a5.342 5.342 0 01.584-.03q.72 0 1.425.218a4.224 4.224 0 01.528.2q.265.122.477.273a2.373 2.373 0 01.135.104l-.18.24a3.037 3.037 0 00-.695-.413 3.784 3.784 0 00-.385-.142q-.63-.195-1.305-.195a4.985 4.985 0 00-.668.042q-.335.045-.607.14a1.916 1.916 0 00-.548.29q-.597.465-.607 1.213a1.907 1.907 0 000 .025 1.768 1.768 0 00.043.4q.072.312.267.53a1.123 1.123 0 00.035.038 2.02 2.02 0 00.715.467 2.414 2.414 0 00.14.05 6.426 6.426 0 00.351.102q.415.108.981.21a20.374 20.374 0 00.018.003 19.837 19.837 0 01.535.113q.512.115.87.231a5.702 5.702 0 01.05.016q.54.18.915.578.351.371.373 1.012a2.541 2.541 0 01.002.09q0 .884-.686 1.425a2.243 2.243 0 01-.049.038 2.415 2.415 0 01-.709.354q-.332.107-.738.155a5.995 5.995 0 01-.698.038 5.133 5.133 0 01-1.599-.246 4.849 4.849 0 01-.156-.054 4.502 4.502 0 01-.566-.248q-.287-.152-.509-.333a2.344 2.344 0 01-.2-.184zM71.55 5.415V10.5h-.3V8.85q-.375.795-1.132 1.245a3.136 3.136 0 01-1.038.381 4.29 4.29 0 01-.785.069 4.543 4.543 0 01-.786-.064q-.441-.077-.792-.249a2.274 2.274 0 01-.439-.28 1.907 1.907 0 01-.721-1.392 2.545 2.545 0 01-.007-.19 2.153 2.153 0 01.12-.734 1.867 1.867 0 01.532-.774 1.938 1.938 0 01.618-.357q.554-.206 1.377-.219a7.097 7.097 0 01.113-.001h2.94V5.43a3.775 3.775 0 00-.06-.699q-.073-.387-.235-.689a1.825 1.825 0 00-.328-.442q-.528-.522-1.483-.601a4.299 4.299 0 00-.354-.014q-.84 0-1.567.293-.728.292-1.253.787l-.21-.21q.555-.54 1.35-.847.795-.308 1.665-.308a4.181 4.181 0 01.799.072q.463.09.821.293a2.14 2.14 0 01.442.333q.646.631.707 1.774a4.578 4.578 0 01.006.243zM52.275 6.54v.075h-6.9a4.062 4.062 0 00.16 1.156 3.544 3.544 0 00.305.727q.465.832 1.283 1.297a3.584 3.584 0 001.585.458 4.316 4.316 0 00.252.007q.795 0 1.493-.307.697-.308 1.147-.893l.21.21q-.51.615-1.26.945-.75.33-1.59.33a4.198 4.198 0 01-1.221-.173 3.682 3.682 0 01-.767-.329q-.877-.503-1.379-1.403a3.987 3.987 0 01-.491-1.679 4.815 4.815 0 01-.012-.346 4.67 4.67 0 01.147-1.192 3.962 3.962 0 01.318-.825q.465-.893 1.283-1.395a3.418 3.418 0 011.742-.502 4.085 4.085 0 01.095-.001q1.005 0 1.83.495.825.495 1.298 1.365.472.87.472 1.98zM36.54 9.78l.21.21a1.496 1.496 0 01-.397.297 1.958 1.958 0 01-.271.115q-.412.143-.847.143a2.507 2.507 0 01-.558-.058q-.387-.089-.668-.311a1.51 1.51 0 01-.162-.148 1.743 1.743 0 01-.432-.843 2.557 2.557 0 01-.055-.545V3.03h-1.5v-.285h1.5V1.05h.3v1.695h2.625v.285H33.66v5.535a2.699 2.699 0 00.04.478q.048.268.155.479a1.312 1.312 0 00.21.303q.374.401 1.066.432a2.646 2.646 0 00.119.003 2.078 2.078 0 00.628-.091 1.701 1.701 0 00.662-.389zm41.67 0l.21.21a1.496 1.496 0 01-.397.297 1.958 1.958 0 01-.271.115q-.412.143-.847.143a2.507 2.507 0 01-.558-.058q-.387-.089-.668-.311a1.51 1.51 0 01-.162-.148 1.743 1.743 0 01-.432-.843 2.557 2.557 0 01-.055-.545V3.03h-1.5v-.285h1.5V1.05h.3v1.695h2.625v.285H75.33v5.535a2.699 2.699 0 00.04.478q.048.268.155.479a1.312 1.312 0 00.21.303q.374.401 1.066.432a2.646 2.646 0 00.119.003 2.078 2.078 0 00.628-.091 1.701 1.701 0 00.662-.389zm-62.659.527a3.883 3.883 0 001.369.238 4.436 4.436 0 00.132-.002 3.728 3.728 0 001.796-.501q.862-.502 1.349-1.402a3.908 3.908 0 00.316-.768 4.464 4.464 0 00.172-1.257 4.905 4.905 0 00-.018-.422 4.008 4.008 0 00-.47-1.595q-.487-.893-1.349-1.395a3.628 3.628 0 00-.559-.265A3.883 3.883 0 0016.92 2.7a4.436 4.436 0 00-.132.002 3.728 3.728 0 00-1.796.501q-.862.502-1.349 1.395a3.849 3.849 0 00-.325.794 4.451 4.451 0 00-.163 1.223 4.941 4.941 0 00.014.38 4.069 4.069 0 00.473 1.645q.488.9 1.351 1.403a3.628 3.628 0 00.558.264zM58.155 2.7V3h-.09a3.496 3.496 0 00-.923.115 2.499 2.499 0 00-1.252.777 3.002 3.002 0 00-.631 1.211q-.121.448-.144.978a5.812 5.812 0 00-.005.249v4.17h-.3V2.745h.3v2.01a3.185 3.185 0 01.44-.873 2.713 2.713 0 01.67-.649 2.976 2.976 0 011.09-.452 4.181 4.181 0 01.845-.081zm5.745 0V3h-.09a3.496 3.496 0 00-.923.115 2.499 2.499 0 00-1.252.777 3.002 3.002 0 00-.631 1.211q-.121.448-.144.978a5.812 5.812 0 00-.005.249v4.17h-.3V2.745h.3v2.01a3.185 3.185 0 01.44-.873 2.713 2.713 0 01.67-.649 2.976 2.976 0 011.09-.452A4.181 4.181 0 0163.9 2.7zm-46.98 7.56a3.521 3.521 0 001.335-.251 3.359 3.359 0 00.435-.214q.795-.465 1.245-1.297a3.762 3.762 0 00.431-1.465 4.613 4.613 0 00.019-.418 4.21 4.21 0 00-.142-1.112 3.615 3.615 0 00-.308-.77q-.45-.833-1.245-1.29a3.464 3.464 0 00-1.679-.457 4.103 4.103 0 00-.091-.001 3.581 3.581 0 00-1.302.234 3.379 3.379 0 00-.468.223q-.795.458-1.245 1.291a3.762 3.762 0 00-.431 1.464 4.613 4.613 0 00-.019.418 4.21 4.21 0 00.142 1.112 3.615 3.615 0 00.308.77q.45.833 1.245 1.298a3.428 3.428 0 001.709.465 4.055 4.055 0 00.061 0zm28.455-3.93h6.615a3.759 3.759 0 00-.285-1.291 3.525 3.525 0 00-.21-.419q-.45-.765-1.185-1.2a3.144 3.144 0 00-1.607-.435 3.715 3.715 0 00-.028 0 3.202 3.202 0 00-1.3.263 3.104 3.104 0 00-.335.172q-.735.435-1.177 1.2-.443.765-.488 1.71zM71.25 8.28V6.57h-2.955q-1.195 0-1.789.431a1.501 1.501 0 00-.064.049 1.558 1.558 0 00-.586 1.141 2.159 2.159 0 00-.006.164q0 .885.645 1.395t1.8.51a3.602 3.602 0 001.217-.193q1.005-.359 1.551-1.384a4.12 4.12 0 00.187-.403z" vector-effect="non-scaling-stroke" stroke-linecap="round" fill-rule="evenodd" font-size="12" stroke="#000" stroke-width=".25mm" fill="none"/></svg>

<svg width="78.42" height="10.545" viewBox="0 0 78.42 10.545"><title>Montserrat</title><g id="svgGroup" stroke-linecap="round" fill-rule="evenodd" font-size="9pt" stroke="#000" stroke-width="0.25mm" fill="none" style="stroke:#000;stroke-width:0.25mm;fill:none"><path d="M 10.095 0 L 10.35 0 L 10.35 10.5 L 10.05 10.5 L 10.05 0.645 L 5.265 9.015 L 5.085 9.015 L 0.3 0.675 L 0.3 10.5 L 0 10.5 L 0 0 L 0.255 0 L 5.175 8.61 L 10.095 0 Z M 29.88 5.925 L 29.88 10.5 L 29.58 10.5 L 29.58 5.925 Q 29.58 4.895 29.2 4.214 A 2.282 2.282 0 0 0 28.852 3.743 A 2.367 2.367 0 0 0 27.706 3.092 Q 27.33 2.995 26.883 2.986 A 4.594 4.594 0 0 0 26.79 2.985 A 4.088 4.088 0 0 0 25.783 3.102 A 2.865 2.865 0 0 0 24.397 3.893 A 3.065 3.065 0 0 0 23.582 5.537 A 4.337 4.337 0 0 0 23.52 6.285 L 23.52 10.5 L 23.22 10.5 L 23.22 2.745 L 23.52 2.745 L 23.52 4.815 Q 23.88 3.825 24.72 3.263 A 3.262 3.262 0 0 1 25.95 2.773 A 4.481 4.481 0 0 1 26.775 2.7 Q 28.23 2.7 29.055 3.533 Q 29.88 4.365 29.88 5.925 Z M 37.815 9.48 L 37.995 9.24 A 2.911 2.911 0 0 0 38.503 9.628 Q 38.812 9.817 39.203 9.968 Q 39.96 10.26 40.845 10.26 A 6.079 6.079 0 0 0 41.533 10.224 Q 42.248 10.142 42.685 9.876 A 1.642 1.642 0 0 0 42.795 9.802 A 1.452 1.452 0 0 0 43.413 8.756 A 1.908 1.908 0 0 0 43.425 8.535 A 1.634 1.634 0 0 0 43.381 8.146 A 1.112 1.112 0 0 0 43.087 7.613 Q 42.75 7.275 42.263 7.118 A 6.728 6.728 0 0 0 41.922 7.018 Q 41.566 6.924 41.082 6.827 A 22.906 22.906 0 0 0 40.92 6.795 A 16.76 16.76 0 0 1 40.333 6.679 Q 39.812 6.566 39.443 6.443 A 2.249 2.249 0 0 1 38.634 5.978 A 2.185 2.185 0 0 1 38.498 5.843 Q 38.146 5.463 38.117 4.811 A 2.679 2.679 0 0 1 38.115 4.695 A 1.742 1.742 0 0 1 38.688 3.388 A 2.397 2.397 0 0 1 38.812 3.277 Q 39.35 2.832 40.276 2.73 A 5.342 5.342 0 0 1 40.86 2.7 Q 41.58 2.7 42.285 2.918 A 4.224 4.224 0 0 1 42.813 3.118 Q 43.078 3.24 43.29 3.391 A 2.373 2.373 0 0 1 43.425 3.495 L 43.245 3.735 A 3.037 3.037 0 0 0 42.55 3.322 A 3.784 3.784 0 0 0 42.165 3.18 Q 41.535 2.985 40.86 2.985 A 4.985 4.985 0 0 0 40.192 3.027 Q 39.857 3.072 39.585 3.167 A 1.916 1.916 0 0 0 39.037 3.457 Q 38.44 3.922 38.43 4.67 A 1.907 1.907 0 0 0 38.43 4.695 A 1.768 1.768 0 0 0 38.473 5.095 Q 38.545 5.407 38.74 5.625 A 1.123 1.123 0 0 0 38.775 5.663 A 2.02 2.02 0 0 0 39.49 6.13 A 2.414 2.414 0 0 0 39.63 6.18 A 6.426 6.426 0 0 0 39.981 6.282 Q 40.396 6.39 40.962 6.492 A 20.374 20.374 0 0 0 40.98 6.495 A 19.837 19.837 0 0 1 41.515 6.608 Q 42.027 6.723 42.385 6.839 A 5.702 5.702 0 0 1 42.435 6.855 Q 42.975 7.035 43.35 7.433 Q 43.701 7.804 43.723 8.445 A 2.541 2.541 0 0 1 43.725 8.535 Q 43.725 9.419 43.039 9.96 A 2.243 2.243 0 0 1 42.99 9.998 A 2.415 2.415 0 0 1 42.281 10.352 Q 41.949 10.459 41.543 10.507 A 5.995 5.995 0 0 1 40.845 10.545 A 5.133 5.133 0 0 1 39.246 10.299 A 4.849 4.849 0 0 1 39.09 10.245 A 4.502 4.502 0 0 1 38.524 9.997 Q 38.237 9.845 38.015 9.664 A 2.344 2.344 0 0 1 37.815 9.48 Z M 71.55 5.415 L 71.55 10.5 L 71.25 10.5 L 71.25 8.85 Q 70.875 9.645 70.118 10.095 A 3.136 3.136 0 0 1 69.08 10.476 A 4.29 4.29 0 0 1 68.295 10.545 A 4.543 4.543 0 0 1 67.509 10.481 Q 67.068 10.404 66.717 10.232 A 2.274 2.274 0 0 1 66.278 9.952 A 1.907 1.907 0 0 1 65.557 8.56 A 2.545 2.545 0 0 1 65.55 8.37 A 2.153 2.153 0 0 1 65.67 7.636 A 1.867 1.867 0 0 1 66.202 6.862 A 1.938 1.938 0 0 1 66.82 6.505 Q 67.374 6.299 68.197 6.286 A 7.097 7.097 0 0 1 68.31 6.285 L 71.25 6.285 L 71.25 5.43 A 3.775 3.775 0 0 0 71.19 4.731 Q 71.117 4.344 70.955 4.042 A 1.825 1.825 0 0 0 70.627 3.6 Q 70.099 3.078 69.144 2.999 A 4.299 4.299 0 0 0 68.79 2.985 Q 67.95 2.985 67.223 3.278 Q 66.495 3.57 65.97 4.065 L 65.76 3.855 Q 66.315 3.315 67.11 3.008 Q 67.905 2.7 68.775 2.7 A 4.181 4.181 0 0 1 69.574 2.772 Q 70.037 2.862 70.395 3.065 A 2.14 2.14 0 0 1 70.837 3.398 Q 71.483 4.029 71.544 5.172 A 4.578 4.578 0 0 1 71.55 5.415 Z M 52.275 6.54 L 52.275 6.615 L 45.375 6.615 A 4.062 4.062 0 0 0 45.535 7.771 A 3.544 3.544 0 0 0 45.84 8.498 Q 46.305 9.33 47.123 9.795 A 3.584 3.584 0 0 0 48.708 10.253 A 4.316 4.316 0 0 0 48.96 10.26 Q 49.755 10.26 50.453 9.953 Q 51.15 9.645 51.6 9.06 L 51.81 9.27 Q 51.3 9.885 50.55 10.215 Q 49.8 10.545 48.96 10.545 A 4.198 4.198 0 0 1 47.739 10.372 A 3.682 3.682 0 0 1 46.972 10.043 Q 46.095 9.54 45.593 8.64 A 3.987 3.987 0 0 1 45.102 6.961 A 4.815 4.815 0 0 1 45.09 6.615 A 4.67 4.67 0 0 1 45.237 5.423 A 3.962 3.962 0 0 1 45.555 4.598 Q 46.02 3.705 46.838 3.203 A 3.418 3.418 0 0 1 48.58 2.701 A 4.085 4.085 0 0 1 48.675 2.7 Q 49.68 2.7 50.505 3.195 Q 51.33 3.69 51.803 4.56 Q 52.275 5.43 52.275 6.54 Z M 36.54 9.78 L 36.75 9.99 A 1.496 1.496 0 0 1 36.353 10.287 A 1.958 1.958 0 0 1 36.082 10.402 Q 35.67 10.545 35.235 10.545 A 2.507 2.507 0 0 1 34.677 10.487 Q 34.29 10.398 34.009 10.176 A 1.51 1.51 0 0 1 33.847 10.028 A 1.743 1.743 0 0 1 33.415 9.185 A 2.557 2.557 0 0 1 33.36 8.64 L 33.36 3.03 L 31.86 3.03 L 31.86 2.745 L 33.36 2.745 L 33.36 1.05 L 33.66 1.05 L 33.66 2.745 L 36.285 2.745 L 36.285 3.03 L 33.66 3.03 L 33.66 8.565 A 2.699 2.699 0 0 0 33.7 9.043 Q 33.748 9.311 33.855 9.522 A 1.312 1.312 0 0 0 34.065 9.825 Q 34.439 10.226 35.131 10.257 A 2.646 2.646 0 0 0 35.25 10.26 A 2.078 2.078 0 0 0 35.878 10.169 A 1.701 1.701 0 0 0 36.54 9.78 Z M 78.21 9.78 L 78.42 9.99 A 1.496 1.496 0 0 1 78.023 10.287 A 1.958 1.958 0 0 1 77.752 10.402 Q 77.34 10.545 76.905 10.545 A 2.507 2.507 0 0 1 76.347 10.487 Q 75.96 10.398 75.679 10.176 A 1.51 1.51 0 0 1 75.517 10.028 A 1.743 1.743 0 0 1 75.085 9.185 A 2.557 2.557 0 0 1 75.03 8.64 L 75.03 3.03 L 73.53 3.03 L 73.53 2.745 L 75.03 2.745 L 75.03 1.05 L 75.33 1.05 L 75.33 2.745 L 77.955 2.745 L 77.955 3.03 L 75.33 3.03 L 75.33 8.565 A 2.699 2.699 0 0 0 75.37 9.043 Q 75.418 9.311 75.525 9.522 A 1.312 1.312 0 0 0 75.735 9.825 Q 76.109 10.226 76.801 10.257 A 2.646 2.646 0 0 0 76.92 10.26 A 2.078 2.078 0 0 0 77.548 10.169 A 1.701 1.701 0 0 0 78.21 9.78 Z M 15.551 10.307 A 3.883 3.883 0 0 0 16.92 10.545 A 4.436 4.436 0 0 0 17.052 10.543 A 3.728 3.728 0 0 0 18.848 10.042 Q 19.71 9.54 20.197 8.64 A 3.908 3.908 0 0 0 20.513 7.872 A 4.464 4.464 0 0 0 20.685 6.615 A 4.905 4.905 0 0 0 20.667 6.193 A 4.008 4.008 0 0 0 20.197 4.598 Q 19.71 3.705 18.848 3.203 A 3.628 3.628 0 0 0 18.289 2.938 A 3.883 3.883 0 0 0 16.92 2.7 A 4.436 4.436 0 0 0 16.788 2.702 A 3.728 3.728 0 0 0 14.992 3.203 Q 14.13 3.705 13.643 4.598 A 3.849 3.849 0 0 0 13.318 5.392 A 4.451 4.451 0 0 0 13.155 6.615 A 4.941 4.941 0 0 0 13.169 6.995 A 4.069 4.069 0 0 0 13.642 8.64 Q 14.13 9.54 14.993 10.043 A 3.628 3.628 0 0 0 15.551 10.307 Z M 58.155 2.7 L 58.155 3 L 58.065 3 A 3.496 3.496 0 0 0 57.142 3.115 A 2.499 2.499 0 0 0 55.89 3.892 A 3.002 3.002 0 0 0 55.259 5.103 Q 55.138 5.551 55.115 6.081 A 5.812 5.812 0 0 0 55.11 6.33 L 55.11 10.5 L 54.81 10.5 L 54.81 2.745 L 55.11 2.745 L 55.11 4.755 A 3.185 3.185 0 0 1 55.55 3.882 A 2.713 2.713 0 0 1 56.22 3.233 A 2.976 2.976 0 0 1 57.31 2.781 A 4.181 4.181 0 0 1 58.155 2.7 Z M 63.9 2.7 L 63.9 3 L 63.81 3 A 3.496 3.496 0 0 0 62.887 3.115 A 2.499 2.499 0 0 0 61.635 3.892 A 3.002 3.002 0 0 0 61.004 5.103 Q 60.883 5.551 60.86 6.081 A 5.812 5.812 0 0 0 60.855 6.33 L 60.855 10.5 L 60.555 10.5 L 60.555 2.745 L 60.855 2.745 L 60.855 4.755 A 3.185 3.185 0 0 1 61.295 3.882 A 2.713 2.713 0 0 1 61.965 3.233 A 2.976 2.976 0 0 1 63.055 2.781 A 4.181 4.181 0 0 1 63.9 2.7 Z M 16.92 10.26 A 3.521 3.521 0 0 0 18.255 10.009 A 3.359 3.359 0 0 0 18.69 9.795 Q 19.485 9.33 19.935 8.498 A 3.762 3.762 0 0 0 20.366 7.033 A 4.613 4.613 0 0 0 20.385 6.615 A 4.21 4.21 0 0 0 20.243 5.503 A 3.615 3.615 0 0 0 19.935 4.733 Q 19.485 3.9 18.69 3.443 A 3.464 3.464 0 0 0 17.011 2.986 A 4.103 4.103 0 0 0 16.92 2.985 A 3.581 3.581 0 0 0 15.618 3.219 A 3.379 3.379 0 0 0 15.15 3.442 Q 14.355 3.9 13.905 4.733 A 3.762 3.762 0 0 0 13.474 6.197 A 4.613 4.613 0 0 0 13.455 6.615 A 4.21 4.21 0 0 0 13.597 7.727 A 3.615 3.615 0 0 0 13.905 8.497 Q 14.355 9.33 15.15 9.795 A 3.428 3.428 0 0 0 16.859 10.26 A 4.055 4.055 0 0 0 16.92 10.26 Z M 45.375 6.33 L 51.99 6.33 A 3.759 3.759 0 0 0 51.705 5.039 A 3.525 3.525 0 0 0 51.495 4.62 Q 51.045 3.855 50.31 3.42 A 3.144 3.144 0 0 0 48.703 2.985 A 3.715 3.715 0 0 0 48.675 2.985 A 3.202 3.202 0 0 0 47.375 3.248 A 3.104 3.104 0 0 0 47.04 3.42 Q 46.305 3.855 45.863 4.62 Q 45.42 5.385 45.375 6.33 Z M 71.25 8.28 L 71.25 6.57 L 68.295 6.57 Q 67.1 6.57 66.506 7.001 A 1.501 1.501 0 0 0 66.442 7.05 A 1.558 1.558 0 0 0 65.856 8.191 A 2.159 2.159 0 0 0 65.85 8.355 Q 65.85 9.24 66.495 9.75 Q 67.14 10.26 68.295 10.26 A 3.602 3.602 0 0 0 69.512 10.067 Q 70.517 9.708 71.063 8.683 A 4.12 4.12 0 0 0 71.25 8.28 Z" vector-effect="non-scaling-stroke"/></g></svg>
